assets/svg/talk_icon.svg

<svg fill="none" height="21" viewBox="0 0 22 21" width="22" xmlns="http://www.w3.org/2000/svg"><path d="m20.0002 8.25h-.0383c-.3833-4.6118-4.2524-8.25-8.9618-8.25-4.70942 0-8.57862 3.6382-8.96182 8.25h-.03828c-.82726 0-1.5.67274-1.5 1.5v3c0 .8273.67274 1.5 1.5 1.5h1.5c.82726 0 1.5-.6727 1.5-1.5v-3c0-.81454-.6525-1.47524-1.4625-1.49624.37578-3.7868 3.5782-6.7538 7.4624-6.7538s7.0868 2.967 7.4624 6.7538c-.8092.02023-1.4625.68172-1.4625 1.49624v3c0 .8273.6727 1.5 1.5 1.5 0 2.0678-1.6823 3.75-3.75 3.75h-.75c-.0458 0-.0863.018-.1298.0262-.3029-.8842-1.1339-1.5262-2.1202-1.5262h-1.5c-1.24043 0-2.24997 1.0096-2.24997 2.25 0 1.2405 1.00954 2.25 2.24997 2.25h1.5c.9863 0 1.8165-.642 2.1202-1.5262.0435.0082.084.0262.1298.0262h.75c2.895 0 5.25-2.355 5.25-5.25.8273 0 1.5-.6727 1.5-1.5v-2.99998c0-.82726-.6727-1.5-1.5-1.5z" fill="#7200a6"/></svg>

<svg width="22" height="21" viewBox="0 0 22 21" fill="none" xmlns="http://www.w3.org/2000/svg">
<path d="M20.0002 8.25H19.9619C19.5786 3.6382 15.7095 0 11.0001 0C6.29068 0 2.42148 3.6382 2.03828 8.25H2C1.17274 8.25 0.5 8.92274 0.5 9.75V12.75C0.5 13.5773 1.17274 14.25 2 14.25H3.5C4.32726 14.25 5 13.5773 5 12.75V9.75C5 8.93546 4.3475 8.27476 3.5375 8.25376C3.91328 4.46696 7.1157 1.49996 10.9999 1.49996C14.8841 1.49996 18.0867 4.46696 18.4623 8.25376C17.6531 8.27399 16.9998 8.93548 16.9998 9.75V12.75C16.9998 13.5773 17.6725 14.25 18.4998 14.25C18.4998 16.3178 16.8175 18 14.7498 18H13.9998C13.954 18 13.9135 18.018 13.87 18.0262C13.5671 17.142 12.7361 16.5 11.7498 16.5H10.2498C9.00937 16.5 7.99983 17.5096 7.99983 18.75C7.99983 19.9905 9.00937 21 10.2498 21H11.7498C12.7361 21 13.5663 20.358 13.87 19.4738C13.9135 19.482 13.954 19.5 13.9998 19.5H14.7498C17.6448 19.5 19.9998 17.145 19.9998 14.25C20.8271 14.25 21.4998 13.5773 21.4998 12.75V9.75002C21.4998 8.92276 20.8271 8.25002 19.9998 8.25002L20.0002 8.25Z" fill="#7200A6"/>
</svg>
